X: 132214
T: Miss Elphinston's Fancy
S: Fitzmaurice Collection
L: 1/8
M: 6/8
R: jig
Q: 1/4=160
K: D
EFE EFA | B2A Bcd | DED FDF | ABA AGF |
EFE EFA | B2A B2c | dcd AFD | EFE E2z :|
ded dcB | efe efg | fdB Bcd | ABG FED |
ded dcB | efe efg | fdB AFD | EFE E2z :|
